X: 34
T:Swinging on a Gate
M:C|
L:1/8
K:G
"G"gedB G2AB|"Am"cABG AGEG|"G"DGBd g2g2|"D"fgag fdef|!
"G"gedB G2AB|"Am" cABG AGEG|cABG AGEG|"D"DGGF "G"G2d2:|!
"G"gfga bagf|"Em"gfed B2AG|"Am"EAAB cBAG|EAAB "D"cdef|!
"G"gfga bagf|"Em"gfed edBd|"C"cABG "Am"AGEG|"D"DGGA "G"G2G2:|!
